app/static/img/light-half.svg

<?xml version="1.0" encoding="UTF-8" standalone="no"?>
<svg
   width="100pt"
   height="100pt"
   viewBox="0 0 100 100"
   version="1.1"
   id="svg2"
   sodipodi:docname="light-half.svg"
   inkscape:version="1.3.2 (091e20ef0f, 2023-11-25)"
   xmlns:inkscape="http://www.inkscape.org/namespaces/inkscape"
   xmlns:sodipodi="http://sodipodi.sourceforge.net/DTD/sodipodi-0.dtd"
   xmlns="http://www.w3.org/2000/svg"
   xmlns:svg="http://www.w3.org/2000/svg">
  <defs
     id="defs2" />
  <sodipodi:namedview
     id="namedview2"
     pagecolor="#ffffff"
     bordercolor="#000000"
     borderopacity="0.25"
     inkscape:showpageshadow="2"
     inkscape:pageopacity="0.0"
     inkscape:pagecheckerboard="0"
     inkscape:deskcolor="#d1d1d1"
     inkscape:document-units="pt"
     inkscape:zoom="6.7083333"
     inkscape:cx="60"
     inkscape:cy="60"
     inkscape:window-width="1920"
     inkscape:window-height="1011"
     inkscape:window-x="0"
     inkscape:window-y="0"
     inkscape:window-maximized="1"
     inkscape:current-layer="svg2" />
  <g
     id="surface495"
     transform="translate(2,2)">
    <path
       style="fill:#fafafa;fill-opacity:1;fill-rule:nonzero;stroke:#000000;stroke-width:1.3149;stroke-linecap:butt;stroke-linejoin:miter;stroke-miterlimit:4;stroke-opacity:1"
       d="M 95.328125,48 C 95.328125,74.144531 74.140625,95.34375 48,95.34375 21.859375,95.34375 0.671875,74.144531 0.671875,48 0.671875,21.855469 21.859375,0.65625 48,0.65625 74.140625,0.65625 95.328125,21.855469 95.328125,48 Z m 0,0"
       id="path1" />
    <path
       style="fill:#000000;fill-opacity:1;fill-rule:nonzero;stroke:none"
       d="m 33.453125,49.03125 12.125,-12.125 -12.125,-12.15625 z m 0,5.21875 v 20.8125 l -1.875,4.59375 -1.84375,-4.59375 c 0,-9.769531 0,-19.550781 0,-29.34375 0.01953,-9.792969 0.01953,-19.585938 0,-29.375 2.957031,3.0625 6.011719,6.0625 9.15625,9 3.144531,2.914062 6.25,5.894531 9.3125,8.9375 l 18.0625,-17.9375 c 0,9.789062 0,19.582031 0,29.375 0,9.792969 0,19.574219 0,29.34375 l -1.84375,4.59375 -1.84375,-4.59375 V 53.90625 L 48.203125,39.5 Z m 17.375,-17.34375 11.75,11.75 V 25.125 Z m 0,0"
       id="path2" />
  </g>
</svg>

<?xml version="1.0" encoding="UTF-8"?>
<svg xmlns="http://www.w3.org/2000/svg" xmlns:xlink="http://www.w3.org/1999/xlink" width="90pt" height="90pt" viewBox="0 0 90 90" version="1.1">
<g id="surface495">
<path style="fill-rule:nonzero;fill:rgb(98.039216%,98.039216%,98.039216%);fill-opacity:1;stroke-width:1.3149;stroke-linecap:butt;stroke-linejoin:miter;stroke:rgb(0%,0%,0%);stroke-opacity:1;stroke-miterlimit:4;" d="M 95.328125 48 C 95.328125 74.144531 74.140625 95.34375 48 95.34375 C 21.859375 95.34375 0.671875 74.144531 0.671875 48 C 0.671875 21.855469 21.859375 0.65625 48 0.65625 C 74.140625 0.65625 95.328125 21.855469 95.328125 48 Z M 95.328125 48 "/>
<path style=" stroke:none;fill-rule:nonzero;fill:rgb(0%,0%,0%);fill-opacity:1;" d="M 33.453125 49.03125 L 45.578125 36.90625 L 33.453125 24.75 Z M 33.453125 54.25 L 33.453125 75.0625 L 31.578125 79.65625 L 29.734375 75.0625 C 29.734375 65.292969 29.734375 55.511719 29.734375 45.71875 C 29.753906 35.925781 29.753906 26.132812 29.734375 16.34375 C 32.691406 19.40625 35.746094 22.40625 38.890625 25.34375 C 42.035156 28.257812 45.140625 31.238281 48.203125 34.28125 L 66.265625 16.34375 C 66.265625 26.132812 66.265625 35.925781 66.265625 45.71875 C 66.265625 55.511719 66.265625 65.292969 66.265625 75.0625 L 64.421875 79.65625 L 62.578125 75.0625 L 62.578125 53.90625 L 48.203125 39.5 Z M 50.828125 36.90625 L 62.578125 48.65625 L 62.578125 25.125 Z M 50.828125 36.90625 "/>
</g>
</svg>
